communes/115.svg

<?xml version="1.0" encoding="UTF-8" standalone="no"?>
<svg
   xmlns:dc="http://purl.org/dc/elements/1.1/"
   xmlns:cc="http://creativecommons.org/ns#"
   xmlns:rdf="http://www.w3.org/1999/02/22-rdf-syntax-ns#"
   xmlns:svg="http://www.w3.org/2000/svg"
   xmlns="http://www.w3.org/2000/svg"
   xmlns:sodipodi="http://sodipodi.sourceforge.net/DTD/sodipodi-0.dtd"
   xmlns:inkscape="http://www.inkscape.org/namespaces/inkscape"
   version="1.0"
   width="212.37007"
   height="248.75842"
   id="svg2780"
   sodipodi:docname="115.svg">
  <metadata
     id="metadata24">
    <rdf:RDF>
      <cc:Work
         rdf:about="">
        <dc:format>image/svg+xml</dc:format>
        <dc:type
           rdf:resource="http://purl.org/dc/dcmitype/StillImage" />
      </cc:Work>
    </rdf:RDF>
  </metadata>
  <sodipodi:namedview
     pagecolor="#ffffff"
     bordercolor="#666666"
     borderopacity="1"
     objecttolerance="10"
     gridtolerance="10"
     guidetolerance="10"
     inkscape:pageopacity="0"
     inkscape:pageshadow="2"
     inkscape:window-width="640"
     inkscape:window-height="480"
     id="namedview22" />
  <defs
     id="defs2782" />
  <g
     transform="translate(-18.002551,-805.29164)"
     id="layer1">
    <path
       d="M 19.002551,806.29164 L 22.827457,966.97155 C 25.559526,1081.7429 222.81565,1081.7429 225.54773,966.97155 L 229.37263,806.29164 L 19.002551,806.29164 z"
       id="path3282"
       style="fill:#fce539;fill-opacity:1;fill-rule:evenodd;stroke:#000000;stroke-width:2;stroke-linecap:butt;stroke-miterlimit:4;stroke-dashoffset:0;stroke-opacity:1" />
    <path
       d="M 145.03398,226.43069 C 140.84004,225.45013 139.64922,222.28102 132.60249,222.19869 C 134.7984,223.48265 134.43684,226.46487 134.63033,227.62094 L 145.03398,226.43069 z"
       transform="translate(0,804.33069)"
       id="path3364"
       style="opacity:1;fill:#d53929;fill-opacity:1;fill-rule:evenodd;stroke:#000000;stroke-width:0.99921262;stroke-linecap:butt;stroke-linejoin:round;marker:none;marker-start:none;marker-mid:none;marker-end:none;stroke-miterlimit:4;stroke-dasharray:none;stroke-dashoffset:0;stroke-opacity:1;visibility:visible;display:inline;overflow:visible;enable-background:accumulate" />
    <path
       d="M 145.91564,200.15706 C 141.90458,202.92626 138.31434,205.78897 140.53748,209.94354 C 132.03737,212.07393 123.62084,213.661 115.58635,212.76487 C 97.657913,195.75016 113.85765,198.94157 109.73527,194.04331 C 117.40559,195.49888 107.41458,203.46892 122.02251,203.41922 C 132.51153,203.38369 130.95149,198.83822 131.05644,191.3511 C 131.16846,183.29777 135.77694,181.32551 142.56272,180.72054 L 145.91564,200.15706 z"
       transform="translate(0,804.33069)"
       id="path3368"
       style="opacity:1;fill:#d53929;fill-opacity:1;fill-rule:evenodd;stroke:#000000;stroke-width:0.99921262;stroke-linecap:butt;stroke-linejoin:round;marker:none;marker-start:none;marker-mid:none;marker-end:none;stroke-miterlimit:4;stroke-dasharray:none;stroke-dashoffset:0;stroke-opacity:1;visibility:visible;display:inline;overflow:visible;enable-background:accumulate" />
    <path
       d="M 96.366042,132.88598 C 93.727711,129.58179 87.464223,111.74288 89.081422,102.43199 C 89.825933,98.145535 91.39847,89.993483 95.748876,89.948866 C 98.075509,89.924365 99.579457,88.678621 98.735842,85.183441 C 101.84617,86.321511 102.4635,93.80379 98.746539,96.120525 C 92.435261,100.05426 99.854399,112.49455 104.83003,116.39883 L 96.366042,132.88598 z"
       transform="translate(0,804.33069)"
       id="path3376"
       style="opacity:1;fill:#d53929;fill-opacity:1;fill-rule:evenodd;stroke:#000000;stroke-width:1px;stroke-linecap:butt;stroke-linejoin:round;marker:none;marker-start:none;marker-mid:none;marker-end:none;stroke-miterlimit:4;stroke-dasharray:none;stroke-dashoffset:0;stroke-opacity:1;visibility:visible;display:inline;overflow:visible;enable-background:accumulate" />
    <path
       d="M 142.38898,188.60724 C 140.22925,187.51916 138.25989,186.05032 136.56999,184.02258 L 142.82981,181.99475"
       transform="translate(0,804.33069)"
       id="path3366"
       style="opacity:1;fill:none;fill-opacity:0.75;fill-rule:evenodd;stroke:#000000;stroke-width:0.99921262;stroke-linecap:butt;stroke-linejoin:round;marker:none;marker-start:none;marker-mid:none;marker-end:none;stroke-miterlimit:4;stroke-dasharray:none;stroke-dashoffset:0;stroke-opacity:1;visibility:visible;display:inline;overflow:visible;enable-background:accumulate" />
    <path
       d="M 141.11946,988.02629 C 141.1399,986.17893 141.18788,984.30671 141.20727,982.41315 C 141.18788,984.30671 141.1399,986.17893 141.11946,988.02629 C 141.02162,996.86974 141.55479,1005.1435 148.87548,1012.4626 C 151.44705,1015.0336 152.48836,1018.9465 148.93783,1024.6818 C 142.35572,1035.3141 131.54883,1027.2225 127.42943,1032.163 C 138.4327,1035.2572 128.39525,1034.3265 128.42692,1039.8936 C 132.08839,1036.3147 137.05948,1039.4119 136.04612,1040.7613 C 134.73712,1042.5044 135.18959,1044.6506 136.28216,1046.4396 C 138.56067,1041.3254 144.25122,1041.5191 145.88301,1040.3923 C 154.95325,1034.1292 159.44882,1024.5194 165.33408,1016.9291 C 156.22698,1012.9621 163.48462,1005.2144 164.39893,994.57007 C 176.16887,1010.8208 175.53336,1022.5852 160.09725,1040.1429 C 204.9342,1012.6941 166.44863,983.33417 137.65371,935.15703 C 131.08014,924.15871 141.73228,914.26554 141.73228,905.85574 C 141.73228,899.90688 143.16413,897.1277 138.6512,898.49925 C 144.81542,896.45445 144.81653,889.55417 136.96794,889.58417 C 134.71884,885.96353 121.0383,882.03524 113.21519,882.78877 C 101.11573,883.95421 115.12185,895.86363 121.37823,901.49691 C 122.23834,902.27135 123.80827,903.84457 124.24993,904.29716 C 123.80827,903.84457 122.23834,902.27135 121.37823,901.49691 C 118.72052,908.30361 107.84327,910.28151 102.74154,916.32939 C 92.776588,928.14242 97.303871,940.79104 108.47711,955.35622 C 121.18483,971.92172 123.60998,971.77836 131.07444,978.69027 C 135.47894,982.76874 138.04389,986.27964 141.11946,988.02629 z"
       id="path2492"
       style="fill:#d53929;fill-opacity:1;fill-rule:evenodd;stroke:#000000;stroke-width:0.99921262;stroke-linecap:butt;stroke-linejoin:round;stroke-miterlimit:4;stroke-dasharray:none;stroke-opacity:1" />
    <path
       d="M 128.54684,85.893204 A 2.1159973,2.1159973 0 1 1 124.31484,85.893204 A 2.1159973,2.1159973 0 1 1 128.54684,85.893204 z"
       transform="translate(0,804.33069)"
       id="path3362"
       style="opacity:1;fill:#000000;fill-opacity:1;fill-rule:evenodd;stroke:none;stroke-width:1pt;stroke-linecap:butt;stroke-linejoin:miter;marker:none;marker-start:none;marker-mid:none;marker-end:none;stroke-miterlimit:4;stroke-dasharray:none;stroke-dashoffset:0;stroke-opacity:1;visibility:visible;display:inline;overflow:visible;enable-background:accumulate" />
    <path
       d="M 102.6792,212.8076 C 107.15648,208.08562 104.91105,206.72501 100.12313,206.63563 C 101.1529,204.04592 104.18657,204.72474 104.63328,203.15802 C 104.89837,202.2283 106.20903,198.58447 100.62187,198.84274 C 105.97479,195.93882 108.41975,197.87061 108.53945,200.71303 C 108.68813,204.24341 116.37826,208.71748 118.07796,211.062 C 118.66912,211.87744 121.18949,213.79689 116.83109,214.17915 C 110.70747,214.71623 110.60204,209.65138 102.6792,212.8076 z"
       transform="translate(0,804.33069)"
       id="path3370"
       style="opacity:1;fill:#d53929;fill-opacity:1;fill-rule:evenodd;stroke:#000000;stroke-width:0.99921262;stroke-linecap:butt;stroke-linejoin:round;marker:none;marker-start:none;marker-mid:none;marker-end:none;stroke-miterlimit:4;stroke-dasharray:none;stroke-dashoffset:0;stroke-opacity:1;visibility:visible;display:inline;overflow:visible;enable-background:accumulate" />
    <path
       d="M 83.602187,125.52717 C 82.017405,119.00773 85.221323,115.05644 81.856578,111.06356 C 81.057451,116.12223 77.085671,114.87095 75.372889,119.29285 L 83.602187,125.52717 z"
       transform="translate(0,804.33069)"
       id="path3374"
       style="opacity:1;fill:#d53929;fill-opacity:1;fill-rule:evenodd;stroke:#000000;stroke-width:0.99921262;stroke-linecap:butt;stroke-linejoin:round;marker:none;marker-start:none;marker-mid:none;marker-end:none;stroke-miterlimit:4;stroke-dasharray:none;stroke-dashoffset:0;stroke-opacity:1;visibility:visible;display:inline;overflow:visible;enable-background:accumulate" />
    <path
       d="M 110.56086,148.05062 C 96.458393,149.76192 99.69757,140.06793 82.34756,133.50314 C 78.259961,131.9565 72.536064,127.28097 67.447412,126.00899 C 71.053171,122.94087 77.519723,127.22853 69.210744,118.3385 C 72.872098,118.34479 74.103942,118.86904 74.15501,117.25869 C 74.183227,116.3689 74.185101,114.59963 71.767574,113.0485 C 81.826765,111.32841 77.87457,129.95047 105.88803,130.41731"
       transform="translate(0,804.33069)"
       id="path3372"
       style="opacity:1;fill:#d53929;fill-opacity:1;fill-rule:evenodd;stroke:#000000;stroke-width:0.99921262;stroke-linecap:round;stroke-linejoin:round;marker:none;marker-start:none;marker-mid:none;marker-end:none;stroke-miterlimit:4;stroke-dasharray:none;stroke-dashoffset:0;stroke-opacity:1;visibility:visible;display:inline;overflow:visible;enable-background:accumulate" />
    <path
       d="M 89.649474,104.7669 C 82.975673,105.37309 90.535173,94.835832 82.542353,90.427968 C 87.305202,90.178546 90.032643,92.735019 84.84905,86.063946 C 89.678461,85.146629 94.498221,93.322715 91.457426,83.881935 C 94.560179,84.499902 97.141572,88.961934 95.447389,90.178595 C 90.484571,93.742594 95.030988,104.27809 89.649474,104.7669 z"
       transform="translate(0,804.33069)"
       id="path3378"
       style="opacity:1;fill:#d53929;fill-opacity:1;fill-rule:evenodd;stroke:#000000;stroke-width:0.99921262;stroke-linecap:butt;stroke-linejoin:round;marker:none;marker-start:none;marker-mid:none;marker-end:none;stroke-miterlimit:4;stroke-dasharray:none;stroke-dashoffset:0;stroke-opacity:1;visibility:visible;display:inline;overflow:visible;enable-background:accumulate" />
    <path
       d="M 137.15497,88.3083 C 147.12409,88.806149 139.57854,84.046714 135.40935,85.689887"
       transform="translate(0,804.33069)"
       id="path3380"
       style="opacity:1;fill:none;fill-opacity:0.75;fill-rule:evenodd;stroke:#000000;stroke-width:1px;stroke-linecap:round;stroke-linejoin:miter;marker:none;marker-start:none;marker-mid:none;marker-end:none;stroke-miterlimit:4;stroke-dasharray:none;stroke-dashoffset:0;stroke-opacity:1;visibility:visible;display:inline;overflow:visible;enable-background:accumulate" />
    <path
       d="M 108.96762,887.78876 C 112.15536,888.85603 113.71479,889.43137 114.20445,890.11501 C 113.39898,889.29985 110.21143,887.72634 109.90277,889.40968 C 109.35456,888.77191 109.20086,888.26905 108.96762,887.78876 z"
       id="path3382"
       style="opacity:1;fill:none;fill-opacity:0.75;fill-rule:evenodd;stroke:#000000;stroke-width:1px;stroke-linecap:butt;stroke-linejoin:round;marker:none;marker-start:none;marker-mid:none;marker-end:none;stroke-miterlimit:4;stroke-dasharray:none;stroke-dashoffset:0;stroke-opacity:1;visibility:visible;display:inline;overflow:visible;enable-background:accumulate" />
    <path
       d="M 19,1.96875 L 20.625,70.875 L 227.75,70.875 L 229.375,1.96875 L 19,1.96875 z"
       transform="translate(0,804.33069)"
       id="rect3384"
       style="opacity:1;fill:#000000;fill-opacity:1;fill-rule:evenodd;stroke:none;stroke-width:1.00000012px;stroke-linecap:butt;stroke-linejoin:miter;marker:none;marker-start:none;marker-mid:none;marker-end:none;stroke-miterlimit:4;stroke-dasharray:none;stroke-dashoffset:0;stroke-opacity:1;visibility:visible;display:inline;overflow:visible;enable-background:accumulate" />
    <path
       d="M 153.86294,35.815353 A 30.922211,30.922211 0 1 1 92.018517,35.815353 A 30.922211,30.922211 0 1 1 153.86294,35.815353 z"
       transform="matrix(0.9720403,0,0,0.9720403,4.5124066,805.94728)"
       id="path3386"
       style="opacity:1;fill:#ffffff;fill-opacity:1;fill-rule:evenodd;stroke:none;stroke-width:1px;stroke-linecap:butt;stroke-linejoin:miter;marker:none;marker-start:none;marker-mid:none;marker-end:none;stroke-miterlimit:4;stroke-dasharray:none;stroke-dashoffset:0;stroke-opacity:0.49019608;visibility:visible;display:inline;overflow:visible;enable-background:accumulate" />
    <path
       d="M 137.8488,62.906541 A 30.922211,30.922211 0 0 1 106.30136,61.879015"
       transform="matrix(2.1586585,0,0,2.1586585,-139.22504,703.27272)"
       id="path3388"
       style="opacity:1;fill:none;fill-opacity:0.38235294;fill-rule:evenodd;stroke:#000000;stroke-width:0.46288592;stroke-linecap:butt;stroke-linejoin:miter;marker:none;marker-start:none;marker-mid:none;marker-end:none;stroke-miterlimit:4;stroke-dasharray:none;stroke-dashoffset:0;stroke-opacity:1;visibility:visible;display:inline;overflow:visible;enable-background:accumulate" />
    <path
       d="M 148.32114,18.151327 A 30.922211,30.922211 0 0 1 148.46013,53.277983"
       transform="matrix(1.8764004,0,0,1.8764004,-156.89229,774.22882)"
       id="path3390"
       style="opacity:1;fill:none;fill-opacity:0.38235294;fill-rule:evenodd;stroke:#000000;stroke-width:0.53251565;stroke-linecap:butt;stroke-linejoin:miter;marker:none;marker-start:none;marker-mid:none;marker-end:none;stroke-miterlimit:4;stroke-dasharray:none;stroke-dashoffset:0;stroke-opacity:1;visibility:visible;display:inline;overflow:visible;enable-background:accumulate" />
  </g>
</svg>

<?xml version="1.0" encoding="UTF-8"?>
<svg version="1.0" viewBox="0 0 212.37 248.76" xmlns="http://www.w3.org/2000/svg" xmlns:cc="http://creativecommons.org/ns#" xmlns:dc="http://purl.org/dc/elements/1.1/" xmlns:rdf="http://www.w3.org/1999/02/22-rdf-syntax-ns#">
<metadata>
<rdf:RDF>
<cc:Work rdf:about="">
<dc:format>image/svg+xml</dc:format>
<dc:type rdf:resource="http://purl.org/dc/dcmitype/StillImage"/>
</cc:Work>
</rdf:RDF>
</metadata>
<g transform="translate(-18.003 -805.29)">
<path d="m19.003 806.29 3.8249 160.68c2.7321 114.77 199.99 114.77 202.72 0l3.8249-160.68h-210.37z" fill="#fce539" fill-rule="evenodd" stroke="#000" stroke-width="2"/>
<path transform="translate(0 804.33)" d="m145.03 226.43c-4.1939-0.98056-5.3848-4.1497-12.431-4.232 2.1959 1.284 1.8344 4.2662 2.0278 5.4222l10.404-1.1902z" fill="#d53929" fill-rule="evenodd" stroke="#000" stroke-linejoin="round" stroke-width=".99921"/>
<path transform="translate(0 804.33)" d="m145.92 200.16c-4.0111 2.7692-7.6013 5.6319-5.3782 9.7865-8.5001 2.1304-16.917 3.7175-24.951 2.8213-17.928-17.015-1.7287-13.823-5.8511-18.722 7.6703 1.4556-2.3207 9.4256 12.287 9.3759 10.489-0.03553 8.929-4.581 9.0339-12.068 0.11202-8.0533 4.7205-10.026 11.506-10.631l3.3529 19.437z" fill="#d53929" fill-rule="evenodd" stroke="#000" stroke-linejoin="round" stroke-width=".99921"/>
<path transform="translate(0 804.33)" d="m96.366 132.89c-2.6383-3.3042-8.9018-21.143-7.2846-30.454 0.74451-4.2865 2.317-12.439 6.6675-12.483 2.3266-0.024501 3.8306-1.2702 2.987-4.7654 3.1103 1.1381 3.7277 8.6203 0.010697 10.937-6.3113 3.9337 1.1079 16.374 6.0835 20.278l-8.464 16.487z" fill="#d53929" fill-rule="evenodd" stroke="#000" stroke-linejoin="round" stroke-width="1px"/>
<path transform="translate(0 804.33)" d="m142.39 188.61c-2.1597-1.0881-4.1291-2.5569-5.819-4.5847l6.2598-2.0278" fill="none" stroke="#000" stroke-linejoin="round" stroke-width=".99921"/>
<path d="m141.12 988.03c0.02044-1.8474 0.06842-3.7196 0.08781-5.6131-0.01939 1.8936-0.06737 3.7658-0.08781 5.6131-0.09784 8.8434 0.43533 17.117 7.756 24.436 2.5716 2.571 3.6129 6.4839 0.06235 12.219-6.5821 10.632-17.389 2.5407-21.508 7.4812 11.003 3.0942 0.96582 2.1635 0.99749 7.7306 3.6615-3.5789 8.6326-0.4817 7.6192 0.8677-1.309 1.7431-0.85653 3.8893 0.23604 5.6783 2.2785-5.1142 7.9691-4.9205 9.6008-6.0473 9.0702-6.2631 13.566-15.873 19.451-23.463-9.1071-3.967-1.8495-11.715-0.93515-22.359 11.77 16.251 11.134 28.015-4.3017 45.573 44.837-27.449 6.3514-56.809-22.444-104.99-6.5736-10.998 4.0786-20.891 4.0786-29.301 0-5.9489 1.4318-8.728-3.0811-7.3565 6.1642-2.0448 6.1653-8.9451-1.6833-8.9151-2.2491-3.6206-15.93-7.5489-23.753-6.7954-12.099 1.1654 1.9067 13.075 8.163 18.708 0.86011 0.77444 2.43 2.3477 2.8717 2.8002-0.44166-0.45259-2.0116-2.0258-2.8717-2.8002-2.6577 6.8067-13.535 8.7846-18.637 14.832-9.965 11.813-5.4377 24.462 5.7356 39.027 12.708 16.566 15.133 16.422 22.597 23.334 4.4045 4.0785 6.9694 7.5894 10.045 9.336z" fill="#d53929" fill-rule="evenodd" stroke="#000" stroke-linejoin="round" stroke-width=".99921"/>
<path transform="translate(0 804.33)" d="m128.55 85.893a2.116 2.116 0 1 1-4.232 0 2.116 2.116 0 1 1 4.232 0z" fill-rule="evenodd"/>
<path transform="translate(0 804.33)" d="m102.68 212.81c4.4773-4.722 2.2318-6.0826-2.5561-6.172 1.0298-2.5897 4.0634-1.9109 4.5102-3.4776 0.26509-0.92972 1.5758-4.5736-4.0114-4.3153 5.3529-2.9039 7.7979-0.97213 7.9176 1.8703 0.14868 3.5304 7.8388 8.0044 9.5385 10.349 0.59116 0.81544 3.1115 2.7349-1.2469 3.1172-6.1236 0.53708-6.229-4.5278-14.152-1.3716z" fill="#d53929" fill-rule="evenodd" stroke="#000" stroke-linejoin="round" stroke-width=".99921"/>
<path transform="translate(0 804.33)" d="m83.602 125.53c-1.5848-6.5194 1.6191-10.471-1.7456-14.464-0.79913 5.0587-4.7709 3.8074-6.4837 8.2293l8.2293 6.2343z" fill="#d53929" fill-rule="evenodd" stroke="#000" stroke-linejoin="round" stroke-width=".99921"/>
<path transform="translate(0 804.33)" d="m110.56 148.05c-14.102 1.7113-10.863-7.9827-28.213-14.547-4.0876-1.5466-9.8115-6.2222-14.9-7.4942 3.6058-3.0681 10.072 1.2195 1.7633-7.6705 3.6614 0.00629 4.8932 0.53054 4.9443-1.0798 0.028217-0.88979 0.030091-2.6591-2.3874-4.2102 10.059-1.7201 6.107 16.902 34.12 17.369" fill="#d53929" fill-rule="evenodd" stroke="#000" stroke-linecap="round" stroke-linejoin="round" stroke-width=".99921"/>
<path transform="translate(0 804.33)" d="m89.649 104.77c-6.6738 0.60619 0.8857-9.9311-7.1071-14.339 4.7628-0.24942 7.4903 2.3071 2.3067-4.364 4.8294-0.91732 9.6492 7.2588 6.6084-2.182 3.1028 0.61797 5.6841 5.08 3.99 6.2967-4.9628 3.564-0.4164 14.099-5.7979 14.588z" fill="#d53929" fill-rule="evenodd" stroke="#000" stroke-linejoin="round" stroke-width=".99921"/>
<path transform="translate(0 804.33)" d="m137.15 88.308c9.9691 0.49785 2.4236-4.2616-1.7456-2.6184" fill="none" stroke="#000" stroke-linecap="round" stroke-width="1px"/>
<path d="m108.97 887.79c3.1877 1.0673 4.7472 1.6426 5.2368 2.3262-0.80547-0.81516-3.993-2.3887-4.3017-0.70533-0.54821-0.63777-0.70191-1.1406-0.93515-1.6209z" fill="none" stroke="#000" stroke-linejoin="round" stroke-width="1px"/>
<path transform="translate(0 804.33)" d="m19 1.9688 1.625 68.906h207.12l1.625-68.906h-210.38z" fill-rule="evenodd"/>
<path transform="matrix(.97204 0 0 .97204 4.5124 805.95)" d="m153.86 35.815a30.922 30.922 0 1 1-61.844 0 30.922 30.922 0 1 1 61.844 0z" fill="#fff" fill-rule="evenodd"/>
<path transform="matrix(2.1587 0 0 2.1587 -139.23 703.27)" d="m137.85 62.907a30.922 30.922 0 0 1-31.547-1.0275" fill="none" stroke="#000" stroke-width=".46289"/>
<path transform="matrix(1.8764 0 0 1.8764 -156.89 774.23)" d="m148.32 18.151a30.922 30.922 0 0 1 0.13899 35.127" fill="none" stroke="#000" stroke-width=".53252"/>
</g>
</svg>
